X:1
T:Title
%%score { ( 1 3 ) | ( 2 4 ) }
L:1/8
Q:1/4=100
M:6/8
K:Eb
V:1 treble nm="Grand Piano"
V:3 treble 
V:2 bass 
V:4 bass 
V:1
 [B,EG]2 [B,D_G] [B,E=G]2 [B,D_G] | z3 [GB]3 | [B,FA]2 [B,=EG] [B,FA]2 [B,DB] | [EG]6 | c2 c B2 B | %5
w: Florence~W.~Williams * * *|||||
 A2 A G3 | F2 B B2 =A | [DB]6 | [Ge]2 B =A2 B | [=Ec]2 [EG] A3 | AGA [DB]2 [DF] | G6 | G2 G GFG | %13
w: ||||||||
[M:15/16] A->ABc3/2- c3 |[M:3/4] z2 z A z2 | [G,E]6 |] %16
w: |||
V:2
 E,2 B,, E,2 B,, | E,2 B,, E,2 B,, | D,2 B,, D,2 B,, | E,2 B,, .E,3 | %4
 [A,E]2 [A,E] [G,B,E]2 [G,B,E] | [F,B,D]2 [F,B,D] [E,B,E]3 | [F,B,D]2 [F,DF] [F,CE]2 [F,CE] | %7
 [B,,B,]6 | [E,B,]2 [E,G,E] [E,_G,E]2 [E,=G,E] | [C,G,]2 [C,C] [F,CF]3 | %10
 [F,CF]2 [F,CE] [B,,B,]2 [B,,B,] | [E,B,E]6 | [E,B,E]2 [E,B,E] [E,_DE]2 [E,DE] | %13
[M:15/16] [F,_DE]->[F,DE][K:treble][G,DE][A,CE]3/2- [A,CE]3 | %14
[M:3/4] [B,EG]2 .[B,EG]2[K:bass] GB,, | E,6 |] %16
V:3
 x6 | [B,EG]2 [B,FA] B,2 B, | x6 | B,2 B, .B,3 | x6 | x6 | x6 | x6 | x6 | x6 | x6 | x6 | x6 | %13
[M:15/16] x15/2 |[M:3/4] B2 B [B,D]2 [A,DF] | x6 |] %16
V:4
 x6 | x6 | x6 | x6 | x6 | x6 | x6 | x6 | x6 | x6 | x6 | x6 | x6 |[M:15/16] x2[K:treble] x11/2 | %14
[M:3/4] z2 z[K:bass] .B,,3 | x6 |] %16

